X: 1
T: Reel Saint-Sim\'eon
R: reel
Z: John Chambers <jc@trillian.mit.edu>
M: C|
L: 1/8
K: D
|: "D"a2fd A2df | aba^g a2f2 | "A7(Em)"g2ec Acef |1,3 g2"A7"f2 g2^g2 :|2,4 g"A7"f{g}fe "D"d4 :|
|: "D"A2f2 {g}fedc | "G"B2g2 "Em"{a}gfed | "A7"c2a2 gece |1,3 d"D"cde fafd :|2 "A7"dfec "D"d4 :|
